proprietary/assets/icons/beeld-en-geluid/videocamera.svg

<svg enable-background="new 0 0 64 64" viewBox="0 0 64 64" xmlns="http://www.w3.org/2000/svg"><path d="m53 27-4.625 4.625c0 3.2916-.5417 6.375-1.375 6.375v-11.4076c0-.8795-.713-1.5924-1.5925-1.5924h-4.532l-6.4163-6.4764c-.3085-.3211-.7395-.5236-1.2173-.5236h-13.7419c-.8284 0-1.5.6715-1.5 1.5 0 .8284.6716 1.5 1.5 1.5h13.0562l1.2766 4h-18.2403c-.8795 0-1.5925.7129-1.5925 1.5924v.4076h-4.0149c-.0399-.5566-.4921-1-1.0589-1h-.8524c-.5668 0-1.019.4434-1.0589 1h-.0149v.0737 6.8524.0739h.0149c.04.5566.4921 1 1.0589 1h.8524c.5668 0 1.0189-.4434 1.0589-1h4.0149v11.4075c0 .8796.713 1.5925 1.5925 1.5925h29.8151c.8794 0 1.5924-.7129 1.5924-1.5925v-4.4075h2l4 3h4v-17zm-20 16h-14v-8h14z"/></svg>

<?xml version="1.0" encoding="utf-8"?>
<!-- Generator: Adobe Illustrator 19.2.0, SVG Export Plug-In . SVG Version: 6.00 Build 0)  -->
<svg version="1.0" xmlns="http://www.w3.org/2000/svg" xmlns:xlink="http://www.w3.org/1999/xlink" x="0px" y="0px"
	 viewBox="0 0 64 64" enable-background="new 0 0 64 64" xml:space="preserve">
<g id="achtergrond">
</g>
<g id="paneel_1">
	<path d="M53,27l-4.625,4.625C48.375,34.9166,47.8333,38,47,38V26.5924C47,25.7129,46.287,25,45.4075,25h-4.532l-6.4163-6.4764
		C34.1507,18.2025,33.7197,18,33.2419,18H19.5c-0.8284,0-1.5,0.6715-1.5,1.5c0,0.8284,0.6716,1.5,1.5,1.5h13.0562l1.2766,4H15.5925
		C14.713,25,14,25.7129,14,26.5924V27H9.9851c-0.0399-0.5566-0.4921-1-1.0589-1H8.0738c-0.5668,0-1.019,0.4434-1.0589,1H7v0.0737
		v6.8524V34h0.0149c0.04,0.5566,0.4921,1,1.0589,1h0.8524c0.5668,0,1.0189-0.4434,1.0589-1H14v11.4075
		C14,46.2871,14.713,47,15.5925,47h29.8151C46.287,47,47,46.2871,47,45.4075V41h2l4,3h4V27H53z M33,43H19v-8h14V43z"/>
</g>
</svg>
